packages/tokens/icons/unlock/size24Px.svg

<svg viewBox="0 0 24 24" fill="none" xmlns="http://www.w3.org/2000/svg" width="1em" height="1em"><path d="M2.5 12C2.5 11.1716 3.17157 10.5 4 10.5L14 10.5C14.8284 10.5 15.5 11.1716 15.5 12L15.5 20C15.5 20.8284 14.8284 21.5 14 21.5H4C3.17157 21.5 2.5 20.8284 2.5 20L2.5 12Z" stroke="currentColor"/><path d="M9.00004 13.5C8.04609 13.5 7.27277 14.2733 7.27277 15.2273C7.27277 15.8666 7.62012 16.4248 8.1364 16.7235L7.5 18.5H10.5L9.86368 16.7235C10.38 16.4248 10.7273 15.8666 10.7273 15.2273C10.7273 14.2733 9.95399 13.5 9.00004 13.5Z" stroke="currentColor" stroke-linejoin="round"/><path d="M21.5 9.39394V7.03033C21.5 4.5283 19.4717 2.5 16.9697 2.5V2.5V2.5C14.5011 2.5 12.5 4.50114 12.5 6.96967L12.5 10" stroke="currentColor" stroke-linecap="round"/></svg>

<svg xmlns="http://www.w3.org/2000/svg" fill="none" viewBox="0 0 24 24" width="1em" height="1em"><path stroke="currentColor" d="M2.5 12A1.5 1.5 0 0 1 4 10.5h10a1.5 1.5 0 0 1 1.5 1.5v8a1.5 1.5 0 0 1-1.5 1.5H4A1.5 1.5 0 0 1 2.5 20v-8Z"/><path stroke="currentColor" stroke-linejoin="round" d="M9 13.5a1.727 1.727 0 0 0-.864 3.224L7.5 18.5h3l-.636-1.776A1.727 1.727 0 0 0 9 13.5Z"/><path stroke="currentColor" stroke-linecap="round" d="M21.5 9.394V7.03a4.53 4.53 0 0 0-4.53-4.53v0a4.47 4.47 0 0 0-4.47 4.47V10"/></svg>
